X:1     %Music
T:The Good Old Leathern Bottle 
B:Broadwood, Lucy, 1893, English Country Songs, Leadenhall Press, London
S:Mr Bennell and Mr Heywood Sumner
Z:Lucy Broadwood
F:http://www.folkinfo.org/songs
M:6/8     %Meter
L:1/8     %
K:F
A |G2 G (EF) G |(B2 A) F2 c |(de) f (gf) d | c3-c z 
w:Come all you lads_ and lass-*es, to-get-*er let_ us go_
c |f2 g f2 d |(cAF) (AB) c |d2 B G2 E | F2 z 
w:In-to some pleas-ant corn__ field_ our cour-age for to shew!
A2 A |G2 G (EF) G |(B2 G) F z c/ c/ |(de) f (gf) d | c3-c z
w:With the good old lea-*thern bot_ tle And the beer_ it shall_ be brown_
 c |f2 g f2 d |(cA) F A3/2 B/ c |d2 B G2 E | F3-F2 |]
w:We'll reap and skip to-ge-*ther, boys, till bright Phoe-bus does go down *